!! 00000] TT[WS
!!!OTL: Shi Duihua
!!!ARE: Asia, China, Shanxi Hequ
!! Ethnic Group: Han
!! WI, 160
!!!SCT: J0196
!!!YEM: Copyright 1995, estate of Helmut Schaffrath.
**kern
*ICvox
*Ivox
!! Irregular meter.
*MX
*k[b-e-]
*B-:
{[4ccc
8.ccc]
16gg
8fff
8ddd
[4ccc
8.ccc]
16gg
=1
8.ccc
16ddd
8ccc
8bb-
=2
8.gg
16bb-
8.gg
16bb-
=3
8ccc
16ccc
16bb-
4ccc}
=4
{8ccc
16ccc
16fff
8bb-
16bb-
16gg
=5
16ff
16ff
16ff
16gg
4bb-
=6
16bb-
16ccc
16bb-
16gg
16ff
16dd
16ff
16gg
=7
2cc}
=8
{8ccc
4ccc
8bb-
=9
8.ccc
16ddd
8ccc
8bb-
=10
8.gg
16bb-
8gg
8bb-
=11
8ccc
16ccc
16bb-
4ccc}
=12
{8ccc
16ccc
16fff
16bb-
16ccc
16bb-
16gg
=13
16ff
16dd
16ff
16gg
4bb-
=14
16bb-
16ccc
16bb-
16gg
16ff
16dd
16ff
16gg
=15
2cc}
=16
{8gg
16gg
16ff
8dd
8ff
=17
16gg
16bb-
16gg
16ff
4gg
=18
16bb-
16ccc
16bb-
16gg
16ff
16dd
16ff
16gg
=19
2cc}
=20
{8fff
16ddd
16fff
4ccc
=21
8fff
16ddd
16fff
4ccc
=22
8fff
16ddd
16fff
8gg
8bb-
=23
8ccc
8bb-
4ccc}
=24
{8ccc
16ccc
16fff
8bb-
8gg
=25
8ccc
16ccc
16fff
8bb-
8gg
=26
16bb-
16ccc
16bb-
16gg
16ff
16dd
16ff
16gg
=27
2cc}
==
!!!AGN: Xiaodiao, Duihua. Qingge
!!!ONB: ESAC (Essen Associative Code) Database: CHINA
!!!AMT: irregular
!!!AIN: vox
!!!EED: Helmut Schaffrath
!!!EEV: 1.0
*-
